X: 35
T: Ut queant laxis
N: Derived from Ort2007-Ut_queant_laxis.krn
C: Marbrianus de Orto
%%abc-version 2.0
%%abcx-abcm2ps-target-version 5.9.1 (29 Sep 2008)
%%abc-creator hum2abc beta
%%abcx-conversion-date 2019/02/17 07:28:38
%%abc-edited-by Jesse Rodin
%%abc-edited-by Jesse Rodin 8/7/2013
%%abcx-initial-encoding-date 2013/08/07/
%%humdrum-veritas 3154815186
%%humdrum-veritas-data 4099353422
%%linebreak <none>
%%barnumbers 0
L: 1/4
M: 2/1
Q: 1/2=120
%%staves [1 2 3 4]
V: 1 clef=treble
V: 2 clef=treble-8
V: 3 clef=treble-8
V: 4 clef=bass
K: C
[V:1] z8 | 
[V:2] D3EFGA2- | 
[V:3] D8 | 
[V:4] z8 | 
[V:1] z8 | 
[V:2] ABc2B2d2- | 
[V:3] C4D3E | 
[V:4] A,,4G,,4 | 
[V:1] z8 | 
[V:2] d2c3de2- | 
[V:3] F2E3FG2 | 
[V:4] A,,4C,4 | 
[V:1] z4D4- | 
[V:2] e2E2G4 | 
[V:3] A2G3FD2 | 
[V:4] C,4B,,4 | 
[V:1] D4C4 | 
[V:2] A8 | 
[V:3] E4E4 | 
[V:4] A,,8 | 
[V:1] D8 | 
[V:2] z4D4 | 
[V:3] D4d4- | 
[V:4] B,,8 | 
[V:1] F8 | 
[V:2] z2d2c2d2- | 
[V:3] d2cBA2_B2- | 
[V:4] z8 | 
[V:1] F4E4 | 
[V:2] d2c4B2 | 
[V:3] B2A4G2 | 
[V:4] z8 | 
[V:1] D8 | 
[V:2] A2G2A4 | 
[V:3] F2E2F4 | 
[V:4] z8 | 
[V:1] E8 | 
[V:2] A4c4 | 
[V:3] E6DC | 
[V:4] A,,8 | 
[V:1] z8 | 
[V:2] B8 | 
[V:3] G6A2 | 
[V:4] G,,8- | 
[V:1] D8 | 
[V:2] G6F2 | 
[V:3] B8 | 
[V:4] G,,8 | 
[V:1] C8- | 
[V:2] E4z2A2 | 
[V:3] A6GF | 
[V:4] A,,8 | 
[V:1] C8- | 
[V:2] G2E3FG2 | 
[V:3] E2G3FE2 | 
[V:4] C,4C,4 | 
[V:1] C8- | 
[V:2] E2G2A2G2 | 
[V:3] A2G2E4 | 
[V:4] C,8 | 
[V:1] C8 | 
[V:2] F2A4G2 | 
[V:3] A2GFE4 | 
[V:4] z8 | 
[V:1] D8 | 
[V:2] _B2A2_B2AG | 
[V:3] D4G4 | 
[V:4] z8 | 
[V:1] F4F4 | 
[V:2] F2D2z2d2 | 
[V:3] z2d3c_BA | 
[V:4] z8 | 
[V:1] F8 | 
[V:2] d8 | 
[V:3] _B2A4_B2 | 
[V:4] D,8 | 
[V:1] G4F4 | 
[V:2] e4f4 | 
[V:3] c4A4 | 
[V:4] C,4D,4 | 
[V:1] G8 | 
[V:2] e8- | 
[V:3] z2c4B2 | 
[V:4] E,6D,2 | 
[V:1] z8 | 
[V:2] e8 | 
[V:3] c2BAG2c2 | 
[V:4] C,8 | 
[V:1] A6G2 | 
[V:2] f6e2 | 
[V:3] A2d4cB | 
[V:4] D,8- | 
[V:1] F8 | 
[V:2] d4z2d2- | 
[V:3] A2G2A4 | 
[V:4] D,8 | 
[V:1] G4F4 | 
[V:2] d2c4B2 | 
[V:3] G2FED4 | 
[V:4] z8 | 
[V:1] E4D4 | 
[V:2] c4z2G2- | 
[V:3] G8 | 
[V:4] C,4B,,4 | 
[V:1] E4D4- | 
[V:2] G2A4G2 | 
[V:3] C4D4 | 
[V:4] A,,4B,,4 | 
[V:1] D2C2C4- | 
[V:2] A3GE3F | 
[V:3] E2F2C4 | 
[V:4] A,,8 | 
[V:1] C4B,4 | 
[V:2] G4z2G2- | 
[V:3] D8 | 
[V:4] G,,8 | 
[V:1] C8 | 
[V:2] G2c2A2G2 | 
[V:3] C3DEFG2 | 
[V:4] C,8 | 
[V:1] z8 | 
[V:2] c4B4 | 
[V:3] C2E3FG2- | 
[V:4] A,,4G,,4 | 
[V:1] z8 | 
[V:2] E4z2c2 | 
[V:3] G2c2A2G2 | 
[V:4] C,8 | 
[V:1] z8 | 
[V:2] A2G2c4 | 
[V:3] c3de4 | 
[V:4] C,8 | 
[V:1] F8 | 
[V:2] F2D2d4- | 
[V:3] A4_B4- | 
[V:4] z8 | 
[V:1] D4C4 | 
[V:2] d4e4 | 
[V:3] B4A4 | 
[V:4] z8 | 
[V:1] F8 | 
[V:2] d8- | 
[V:3] _B8 | 
[V:4] z8 | 
[V:1] F8 | 
[V:2] d8 | 
[V:3] A4B2d2- | 
[V:4] D,8 | 
[V:1] z8 | 
[V:2] z4f4 | 
[V:3] d2c4B2- | 
[V:4] E,4D,4 | 
[V:1] z8 | 
[V:2] e4d4- | 
[V:3] B2A4G2 | 
[V:4] C,4B,,4- | 
[V:1] G4A4 | 
[V:2] d4c4 | 
[V:3] D4E4 | 
[V:4] B,,4A,,4 | 
[V:1] G4F4 | 
[V:2] e4d4- | 
[V:3] C4D4 | 
[V:4] z8 | 
[V:1] E8 | 
[V:2] d2^cB^c4 | 
[V:3] A8 | 
[V:4] z8 | 
[V:1] D4z4 | 
[V:2] d2A4GF | 
[V:3] D2F3ED2 | 
[V:4] z8 | 
[V:1] z4F4- | 
[V:2] E4D4- | 
[V:3] C4D4 | 
[V:4] z8 | 
[V:1] F4E4 | 
[V:2] D4z4 | 
[V:3] F4G4- | 
[V:4] z4C,4 | 
[V:1] D4C4 | 
[V:2] D4E3F | 
[V:3] G4A4 | 
[V:4] B,,4A,,4 | 
[V:1] D2G3AB2 | 
[V:2] G2FED2G2 | 
[V:3] D4d4 | 
[V:4] G,,8 | 
[V:1] c2A4GF | 
[V:2] E2c2A2c2- | 
[V:3] c4z2A2 | 
[V:4] A,,8- | 
[V:1] E2c3BA2- | 
[V:2] cBAGF4 | 
[V:3] c3BAGF2 | 
[V:4] A,,8- | 
[V:1] AGFEF2ED | 
[V:2] c8 | 
[V:3] E2A4GF | 
[V:4] A,,8- | 
[V:1] C2D4^C2 | 
[V:2] A8- | 
[V:3] E2D2E4 | 
[V:4] A,,8 | 
[V:1] D8 |]  
[V:2] A8 |]  
[V:3] D8 |]  
[V:4] D,8 |]  



